X: 13802
T: Four Courts Highland, The
R: strathspey
M: 4/4
K: Dmajor
d3/2|B/|A>DE>D A>DB>D|A>DF>D G2- G>B|A>DE>D A>DF>A|(3Bcd c>A G2- G>B|
A>DE>D A2 B2|A>DF>D G2- G>B|A>DE>D A>DF>A|(3Bcd (3cBA G>AF>E||
D2 d>B c>AG>E|D>dd>c (3AcA G>E|D2 d>B c>A (3AAA|(3Bcd c>A G>AF>E|
D2 d>B c>AG>E|D>dd>c A>AB>c|d>fe>d c>A (3AAA|(3Bcd c>A G2- G>B||
A>FF>F B>GG>G|A>FF>F G2- G>B|A>FF>F B>GG>G|(3Bcd c>A G>B (3dcB|
(3AdA F>A B>dG>B|A>dF>A G>AF>G|A>d (3ddd d>cA>d|d>cA>F G2- G>B||
A>DE>D A>DB>D|A>DF>D G2- G>B|A>DE>D A>DF>A|(3Bcd c>A G2- G>B|
(3ADD E>D (3ADD B>d|(3ADD (3EDD G2 G>B|A>DE>D A>DF>A|(3Bcd (3cBA G>AF>E||
D2 d>B c>AG>E|D>dd>c (3AcA G>E|D2 d>B c>A (3AAA|(3Bcd c>A (3cBA (3GFE|
D2 d>B c>AG>E|D>dd>c A>A (3ABc|d>fe>d c>A (3AAA|(3Bcd c>A G2- G>B||
A>F (3FFF B>G (3GGG|A>F (3FFF G2 G>B|A>F (3FFF B>G (3GGG|(3Bcd c>A G>B (3dcB|
(3AdA F>A B>dG>B|A>dF>A G>AF>G|A>d (3ddd d>cA>d|d>cA>F G2- G>B||
A>DE>D A>DB>D|A>DF>D G2- G>B|A>DE>D A>DF>A|(3Bcd c>A G2- G>B|
(3ADD E>D A>DB>D|A>DF>D G2- G>B|A>DE>D A>DF>A|(3Bcd c>A G>AF>E||
(3DFA d>B c>AG>E|D>dd>c (3AcA G>E|D2 d>B c>A (3AAA|(3Bcd c>A G>AF>E|
D2 d>B c>AG>E|D>dd>c A>A (3ABc|d>fe>d c>A (3AAA|(3Bcd c>A G2- G>B||
(3AFF (3FFF (3BGG (3GGG|(3AFF (3FFF G2 G>B|A>FF>F B>G (3GGG|(3Bcd c>A G>B (3dcB|
(3AdA F>A B>dG>B|A>dF>A G>AF>G|A>d (3ddd d>cA>d|d>cA>F G2- G3/2||

